images/chevron-right.svg

<svg fill="none" height="48" viewBox="0 0 48 48" width="48" xmlns="http://www.w3.org/2000/svg"><path d="m31.4 25.4-12 12c-.4.4-.8.6-1.4.6s-1-.2-1.4-.6c-.8-.8-.8-2 0-2.8l10.6-10.6-10.6-10.6c-.8-.8-.8-2 0-2.8s2-.8 2.8 0l12 12c.8.8.8 2 0 2.8z" fill="#f9f9f9"/></svg>

<svg width="48" height="48" viewBox="0 0 48 48" fill="none" xmlns="http://www.w3.org/2000/svg">
<path d="M31.4 25.4L19.4 37.4C19 37.8 18.6 38 18 38C17.4 38 17 37.8 16.6 37.4C15.8 36.6 15.8 35.4 16.6 34.6L27.2 24L16.6 13.4C15.8 12.6 15.8 11.4 16.6 10.6C17.4 9.8 18.6 9.8 19.4 10.6L31.4 22.6C32.2 23.4 32.2 24.6 31.4 25.4Z" fill="#F9F9F9"/>
</svg>
